!! 00000] TT[WS
!!!OTL: Nanjing dao beijing
!!!ARE: Asia, China, Shanxi Hequ
!! Ethnic Group: Han
!! WII, 197 (1)
!!!SCT: J0697
!!!YEM: Copyright 1995, estate of Helmut Schaffrath.
**kern
*ICvox
*Ivox
*M2/4
*k[b-e-]
*B-:
{8bb-
8ccc
8fff
8ddd
=1
2ccc
=2
8fff
8ccc
8bb-
8gg
=3
2ff}
=4
{8bb-
4bb-
8dd
=5
8ddd
8ccc
4ddd
=6
8fff
16ddd
16ccc
8bb-
16gg
16bb-
=7
2ccc}
=8
{8.ccc
16bb-
8ccc
8fff
=9
8bb-
16aa
16gg
4ff
=10
8bb-
16gg
16ff
8dd
16cc
16dd
=11
2ff}
=12
{8ccc
8ddd
8bb-
8gg
=13
2fff
=14
8bb-
16gg
16ff
8dd
16cc
16dd
=15
2ff}
==
!!!AGN: Xiaodiao, Shidiao. XÅshi
!!!ONB: ESAC (Essen Associative Code) Database: CHINA
!!!AMT: simple duple
!!!AIN: vox
!!!EED: Helmut Schaffrath
!!!EEV: 1.0
*-
